X:1
T:I
T:I
L:1/8
Q:1/4=80
M:2/4
K:E
V:1 treble nm="Violin" snm="Vln."
V:1
 z/4 z/4 z/4 z/4 z/4 z/4 z/4 z/4!f! E/4G/4B/4e/4e/4B/4G/4E/4 | %1
 D/4F/4B/4f/4f/4B/4F/4D/4 E/4G/4B/4e/4e/4B/4G/4E/4 | %2
 B,/4F/4d/4b/4b/4d/4F/4B,/4 E/4G/4B/4e/4e/4B/4G/4E/4 | %3
 D/4F/4B/4f/4f/4B/4F/4D/4 E/4G/4B/4e/4e/4B/4G/4E/4 | %4
 B,/4F/4d/4b/4b/4d/4F/4B,/4 G,/4E/4B/4g/4g/4B/4E/4G,/4 | %5
 A,/4E/4c/4a/4c'/e'/ ^A,/4F/4c/4^a/4a/4c/4F/4A,/4 | %6
 B,/4F/4d/4b/4d'/f'/ D/4B/4f/4d'/4d'/4f/4B/4D/4 | %7
 E/4B/4g/4e'/4e'/4g/4B/4E/4 F/4d/4b/4f'/4f'/4b/4d/4F/4 | %8
 G/4e/4b/4g'/4g'/4b/4e/4G/4 A/4e/4c'/4a'/4a'/4c'/4e/4A/4 | %9
 ^A/4g/4e'/4c''/4c''/4e'/4g/4A/4 c/4^a/4g'/4e''/4e''/4g'/4a/4c/4 | %10
 ^A/4g/4e'/4c''/4c''/4e'/4g/4A/4 G/4e/4c'/4^a'/4a'/4c'/4e/4G/4 | %11
 E/4c/4^a/4g'/4g'/4a/4c/4E/4 C/4^A/4g/4e'/4e'/4g/4A/4C/4 | %12
 B,/4F/4d/4b/4d'/f'/ A,/4D/4B/4f/4f/4B/4D/4A,/4 | G,/4E/4B/4g/4b/e'/ A,/4D/4B/4f/4f/4B/4D/4A,/4 | %14
 G,/4E/4B/4g/4b/e'/ A,/[Eca]/B,/[Geb]/ | C/[Aec']/=C/[^Ae=c']/ B,/[Geb]/B,/[Fdb]/ | %16
 E[Bge'] E/4=G/4B/4e/4e/4B/4G/4E/4 |[K:G] ^D/4F/4B/4f/4f/4B/4F/4D/4 E/4G/4B/4e/4e/4B/4G/4E/4 | %18
 B,/4F/4^d/4b/4b/4d/4F/4B,/4 E/4G/4B/4e/4e/4B/4G/4E/4 | %19
 ^D/4F/4B/4f/4f/4B/4F/4D/4 E/4G/4B/4e/4e/4B/4G/4E/4 | %20
 B,/4F/4^d/4b/4b/4d/4F/4B,/4 B,/4F/4=d/4b/4b/4d/4F/4B,/4 | %21
 A,/4F/4d/4c'/4c'/4d/4F/4A,/4 A,/4F/4d/4a/4a/4d/4F/4A,/4 | %22
 G,/4D/4B/4d'/4d'/4B/4D/4G,/4 G,/4D/4B/4g'/4g'/4B/4D/4G,/4 | %23
 G,/4D/4g/4b'/4b'/4g/4D/4G,/4 G,/4D/4b/4d''/4d''/4b/4D/4G,/4 | %24
 C/4G/4e/4c'/4C/[Age']/ D/4A/4f/4d'/4^D/[Baf']/ | E/4B/4g/4e'/4F/[daf']/ G/[dbg']/A/[fd'a']/ | %26
 B/[gd'b']/c/[ge'c'']/ ^c/4_b/4g'/4e''/4g''/C/ | %27
 (3D/[bd']/[ac']/(3[gb]/[fa]/[eg]/ (3[df]/[ce]/[Bd]/(3[Ac]/[GB]/[FA]/ |: %28
 G,/4D/4B/4g/4g/4B/4D/4G,/4 G,/4_E/4c/4g/4g/4c/4E/4G,/4 | %29
 (3[G,D]/[bd']/[ac']/(3[gb]/[fa]/[eg]/ (3[df]/[ce]/[Bd]/(3[Ac]/[GB]/[FA]/ :| %30
 G,/4D/4B/4g/4g/4B/4D/4G,/4 G,/4_E/4B/4g/4g/4B/4E/4G,/4 | %31
 (3[G,_E]/[_b_d']/[_ac']/(3[gb]/[gb]/[=fa]/ (3[_eg]/[_df]/[c=e]/(3[_Bd]/[_Ac]/[GB]/ | %32
 _A,/4_E/4c/4_a/4a/4d/4E/4A,/4 A,/4E/4B/4a/4a/4B/4E/4A,/4 | %33
 (3[^G,E]/[bd']/[a^c']/(3[^gb]/[gb]/[fa]/ (3[eg]/[df]/[^ce]/(3[Bd]/[Ac]/[^GB]/ | %34
 A,/4E/4^c/4a/4a/4c/4E/4A,/4 A,/4E/4=c/4a/4a/4c/4E/4A,/4 | %35
 (3[A,=F]/[c'_e']/[_bd']/(3[ac']/[ac']/[gb]/ (3[=fa]/[_eg]/[df]/(3[ce]/[_Bd]/[Ac]/ | %36
 _B,/4=F/4d/4_b/4b/4d/4F/4B,/4 B,/4F/4_d/4b/4b/4d/4F/4B,/4 | %37
 _B,/4F/4_d/4_b/4b/4d/4F/4B,/4 B,/4F/4e/4^c'/4c'/4e/4F/4B,/4 | %38
 B,/4F/4^d/4b/4b/4d/4F/4B,/4 B,/4F/4=d/4b/4b/4d/4F/4B,/4 | %39
 B,/4G/4d/4b/4b/4d/4G/4B,/4 B,/4G/4=f/4d'/4d'/4f/4G/4B,/4 | %40
 C/4G/4e/4c'/4c'/4e/4G/4C/4 C/4G/4_e/4c'/4c'/4e/4G/4C/4 | %41
 C/4_A/4_e/4c'/4c'/4e/4A/4C/4 C/4A/4f/4_e'/4e'/4f/4A/4C/4 | z2 _D/4=F/4_d/4=f/4f/4d/4F/4D/4 | %43
 C/4_E/4_e/4f/4f/4e/4E/4C/4 _D/4=F/4_d/4f/4f/4d/4F/4D/4 | %44
 _A,/4_E/4c/4_a/4a/4c/4E/4A,/4 ^C/4=E/4^c/4e/4e/4c/4E/4C/4 | %45
 C/4^D/4^d/4f/4f/4d/4D/4C/4 ^C/4E/4^c/4e/4e/4c/4E/4C/4 | %46
 ^G,/4^D/4c/4^g/4g/4c/4D/4G,/4 ^C/4E/4^c/4e/4e/4c/4E/4C/4 | %47
 B,/4^G/4d/4e/4e/4d/4G/4B,/4 A,/4E/4^c/4a/4a/4c/4E/4A,/4 | %48
 ^A,/4G/4e/4^c'/4c'/4e/4G/4A,/4 B,/[F^db]/A,/[Fdb]/ | ^G,/[EB^g]/A,/[E^ca]/ B,/[^Geb]/B,/[F^db]/ || %50
[K:E] E[Bge'] E/4G/4B/4e/4e/4B/4G/4E/4 | E/4A/4=c/4e/4e/4c/4A/4E/4 E/4=G/4^A/4e/4e/4A/4G/4E/4 | %52
 E/4G/4B/4e/4(3[gb]/[fa]/[eg]/ (3[ac']/[gb]/[fa]/(3[eg]/[df]/[ce]/ | %53
 B,/4G/4e/4b/4b/4e/4G/4B,/4 B,/4G/4d/4b/4b/4d/4G/4B,/4 | %54
 E/4G/4B/4e/4g'/e'/ E/4B/4g/4e'/4e'/4g/4B/4E/4 | %55
 E/4=c/4a/4e'/4e'/4a/4c/4E/4 E/4^A/4=g/4e'/4e'/4g/4A/4E/4 | %56
 E/4B/4g/4e'/4(3[EG]/[FA]/[GB]/ (3[Ac]/[Bd]/[ce]/(3[df]/[eg]/[fa]/ | %57
 B/4e/4g/4e'/4e'/4g/4e/4B/4 B/4d/4f/4d'/4d'/4f/4d/4B/4 | %58
 E/4B/4g/4e'/4g'/4g/4B/4E/4 E/4=c/4a/4e'/4a'/4a/4c/4E/4 | %59
 E/4B/4g/4e'/4g'/4g/4B/4E/4 E/4=c/4a/4e'/4a'/4a/4c/4E/4 | %60
 E/4B/4g/4e'/4g'/4g/4B/4E/4 C/4^A/4=g/4e'/4C/^A,/ | %61
 (3B,/[gb]/[fa]/(3[eg]/[df]/[ce]/ (3[Bd]/[Ac]/[GB]/(3[FA]/[EG]/[DF]/ | %62
 E/4G/4B/4e/4g/4B/4G/4E/4 E/4A/4=c/4e/4a/4c/4A/4E/4 | %63
 E/4G/4B/4e/4g/4B/4G/4E/4 E/4A/4=c/4e/4a/4c/4A/4E/4 | %64
 E/4G/4B/4e/4g/4B/4G/4E/4 =C/4=G/4^A/4e/4=g/e/ | %65
 (3B,/[Be]/[GB]/(3b/[B,D]/[CE]/ (3[DF]/[EG]/[FA]/(3[GB]/[Ac]/[Bd]/ | %66
 e/4g/4b/4e/4e/4b/4g/4e/4 e/4a/4=c'/4e/4e/4c'/4a/4e/4 | %67
 e/4g/4b/4e/4e/4b/4g/4e/4 d/4f/4b/4e/4e/4b/4f/4d/4 | %68
 c/4e/4a/4e/4e/4a/4e/4c/4 B/4d/4g/4e/4e/4g/4d/4B/4 | %69
 A/4c/4f/4e/4e/4f/4c/4A/4 F/4A/4d/4e/4e/4d/4A/4F/4 | %70
 G/4B/4e/4e/4e/4e/4G/4E/4 =F/4A/4d/4e/4e/4d/4A/4F/4 | %71
 E/4G/4e/4e/4e/4e/4G/4E/4 =F/4A/4d/4e/4e/4d/4A/4F/4 | E/4[Ge]/4e/4 z/4 z E/4[Gg]/4e/4 z/4 z | %73
 E/4G/4e/4e/4e/4g/4B/4G/4 E/4G/4e/4e/4e/4g/4B/4G/4 | [EGe]2 e2 |] %75

